austria/municipalities/70940.svg

<?xml version="1.0" encoding="UTF-8"?>
<!DOCTYPE svg PUBLIC "-//W3C//DTD SVG 1.1//EN" "http://www.w3.org/Graphics/SVG/1.1/DTD/svg11.dtd">
<svg xmlns="http://www.w3.org/2000/svg" version="1.1" width="166px" height="192px" style="shape-rendering:geometricPrecision; text-rendering:geometricPrecision; image-rendering:optimizeQuality; fill-rule:evenodd; clip-rule:evenodd" xmlns:xlink="http://www.w3.org/1999/xlink">
<g><path style="opacity:1" fill="#000000" d="M -0.5,-0.5 C 54.8333,-0.5 110.167,-0.5 165.5,-0.5C 165.5,39.5 165.5,79.5 165.5,119.5C 161.89,140.883 151.89,158.716 135.5,173C 130.672,176.581 125.672,179.915 120.5,183C 112.336,186.554 104.002,189.388 95.5,191.5C 86.8333,191.5 78.1667,191.5 69.5,191.5C 30.064,182.064 6.73062,157.397 -0.5,117.5C -0.5,78.1667 -0.5,38.8333 -0.5,-0.5 Z"/></g>
<g><path style="opacity:1" fill="#fe9900" d="M 11.5,47.5 C 12.2876,50.6209 14.2876,52.2876 17.5,52.5C 18.7804,53.9313 20.4471,54.5979 22.5,54.5C 22.3379,56.5273 22.5045,58.5273 23,60.5C 23.3826,61.056 23.8826,61.3893 24.5,61.5C 26.9135,67.4821 30.2468,72.9821 34.5,78C 41.8274,84.1517 49.8274,89.3184 58.5,93.5C 56.6265,122.395 52.4599,151.062 46,179.5C 22.4286,166.705 8.42864,147.039 4,120.5C 3.50001,81.5014 3.33335,42.5014 3.5,3.5C 29.5021,3.33336 55.5021,3.50003 81.5,4C 73.5944,13.1494 65.9277,22.4827 58.5,32C 62.485,39.6353 66.485,47.3019 70.5,55C 54.7047,54.5905 40.038,50.4238 26.5,42.5C 25.5052,37.2079 25.1718,31.8746 25.5,26.5C 27.8333,26.5 30.1667,26.5 32.5,26.5C 32.5,24.5 32.5,22.5 32.5,20.5C 30.1667,20.5 27.8333,20.5 25.5,20.5C 25.5,18.1667 25.5,15.8333 25.5,13.5C 23.5,13.5 21.5,13.5 19.5,13.5C 19.5,15.8333 19.5,18.1667 19.5,20.5C 17.5,20.5 15.5,20.5 13.5,20.5C 13.5,22.5 13.5,24.5 13.5,26.5C 15.5,26.5 17.5,26.5 19.5,26.5C 19.5,31.8333 19.5,37.1667 19.5,42.5C 16.1667,42.5 12.8333,42.5 9.5,42.5C 9.12012,44.698 9.78679,46.3646 11.5,47.5 Z"/></g>
<g><path style="opacity:1" fill="#fe9900" d="M 147.5,48.5 C 149.752,48.0844 151.252,46.751 152,44.5C 153.744,36.3872 152.244,29.0539 147.5,22.5C 145.955,21.5481 144.288,21.2148 142.5,21.5C 140.618,8.23554 138.451,8.23554 136,21.5C 135.831,28.5236 135.331,35.5236 134.5,42.5C 121.635,50.1395 107.968,54.4729 93.5,55.5C 97.3027,48.0614 100.969,40.5614 104.5,33C 98.2888,22.7847 91.2888,13.118 83.5,4C 109.498,3.50003 135.498,3.33336 161.5,3.5C 161.667,43.1681 161.5,82.8347 161,122.5C 155.432,148.735 140.765,168.068 117,180.5C 116.667,179.833 116.333,179.167 116,178.5C 110.964,150.363 107.131,122.196 104.5,94C 117.497,86.3417 128.664,76.5084 138,64.5C 139.769,59.8688 141.602,55.3688 143.5,51C 141.19,50.5034 138.857,50.3367 136.5,50.5C 136.5,47.8333 136.5,45.1667 136.5,42.5C 141.511,42.3341 146.511,42.5007 151.5,43C 150.035,44.7742 148.702,46.6075 147.5,48.5 Z"/></g>
<g><path style="opacity:1" fill="#fefefe" d="M 77.5,20.5 C 80.5184,20.3354 83.5184,20.502 86.5,21C 88.3289,21.2735 89.8289,22.1068 91,23.5C 91.6667,29.8333 91.6667,36.1667 91,42.5C 89.3205,46.8462 86.3205,49.8462 82,51.5C 76.3378,49.5434 73.0044,45.5434 72,39.5C 71.3333,34.1667 71.3333,28.8333 72,23.5C 73.7189,22.1312 75.5522,21.1312 77.5,20.5 Z"/></g>
<g><path style="opacity:1" fill="#fe9900" d="M 136.5,23.5 C 138.167,23.5 139.833,23.5 141.5,23.5C 141.5,29.1667 141.5,34.8333 141.5,40.5C 139.833,40.5 138.167,40.5 136.5,40.5C 136.5,34.8333 136.5,29.1667 136.5,23.5 Z"/></g>
<g><path style="opacity:1" fill="#000000" d="M 75.5,28.5 C 76.9778,28.238 78.3112,28.5713 79.5,29.5C 77.9255,30.6309 76.2588,30.7975 74.5,30C 75.056,29.6174 75.3893,29.1174 75.5,28.5 Z"/></g>
<g><path style="opacity:1" fill="#000000" d="M 84.5,28.5 C 87.1834,28.2266 88.6834,29.2266 89,31.5C 86.9737,31.0853 85.4737,30.0853 84.5,28.5 Z"/></g>
<g><path style="opacity:1" fill="#000000" d="M 76.5,31.5 C 79.999,31.259 80.3323,32.0924 77.5,34C 76.0563,34.7805 74.723,34.6139 73.5,33.5C 74.6016,32.8243 75.6016,32.1577 76.5,31.5 Z"/></g>
<g><path style="opacity:1" fill="#000000" d="M 83.5,32.5 C 85.503,31.4684 87.503,31.8018 89.5,33.5C 87.2432,34.7698 85.2432,34.4364 83.5,32.5 Z"/></g>
<g><path style="opacity:1" fill="#fe9900" d="M 142.5,32.5 C 145.5,32.5 148.5,32.5 151.5,32.5C 151.5,35.1667 151.5,37.8333 151.5,40.5C 148.5,40.5 145.5,40.5 142.5,40.5C 142.5,37.8333 142.5,35.1667 142.5,32.5 Z"/></g>
<g><path style="opacity:1" fill="#000000" d="M 79.5,38.5 C 81.337,38.6395 81.6704,39.3061 80.5,40.5C 79.7025,40.0431 79.3691,39.3764 79.5,38.5 Z"/></g>
<g><path style="opacity:1" fill="#fe9900" d="M 17.5,52.5 C 15.5398,50.8437 13.5398,49.177 11.5,47.5C 11.4606,46.4168 11.1272,45.4168 10.5,44.5C 15.467,43.3377 20.467,43.1711 25.5,44C 27.3213,46.456 27.988,49.2893 27.5,52.5C 24.1667,52.5 20.8333,52.5 17.5,52.5 Z"/></g>
<g><path style="opacity:1" fill="#000000" d="M 79.5,43.5 C 83.5878,43.2184 84.0878,43.8851 81,45.5C 79.9701,45.1639 79.4701,44.4972 79.5,43.5 Z"/></g>
<g><path style="opacity:1" fill="#000000" d="M 11.5,47.5 C 13.5398,49.177 15.5398,50.8437 17.5,52.5C 14.2876,52.2876 12.2876,50.6209 11.5,47.5 Z"/></g>
<g><path style="opacity:1" fill="#000000" d="M 147.5,48.5 C 146.998,50.0847 145.998,50.5847 144.5,50C 145.244,48.9614 146.244,48.4614 147.5,48.5 Z"/></g>
<g><path style="opacity:1" fill="#fe9900" d="M 136.5,52.5 C 137.978,52.238 139.311,52.5713 140.5,53.5C 137.123,65.6217 135.789,65.2884 136.5,52.5 Z"/></g>
<g><path style="opacity:1" fill="#fe9900" d="M 24.5,61.5 C 24.3259,59.139 23.9926,56.8056 23.5,54.5C 24.8333,54.5 26.1667,54.5 27.5,54.5C 27.6653,58.1817 27.4986,61.8484 27,65.5C 26.3918,63.9336 25.5585,62.6002 24.5,61.5 Z"/></g>
<g><path style="opacity:1" fill="#fe9900" d="M 60.5,94.5 C 64.7766,94.9001 65.2766,96.2334 62,98.5C 60.8118,97.4366 60.3118,96.1033 60.5,94.5 Z"/></g>
<g><path style="opacity:1" fill="#fe9900" d="M 99.5,95.5 C 100.5,95.5 101.5,95.5 102.5,95.5C 102.5,96.8333 102.5,98.1667 102.5,99.5C 100.774,99.8146 99.1075,99.9813 97.5,100C 98.5822,98.6703 99.2488,97.1703 99.5,95.5 Z"/></g>
<g><path style="opacity:1" fill="#fe9900" d="M 67.5,96.5 C 71.2494,97.2768 71.4161,98.6101 68,100.5C 64.9854,99.6411 64.8188,98.3078 67.5,96.5 Z"/></g>
<g><path style="opacity:1" fill="#fe9900" d="M 93.5,97.5 C 94.3764,97.3691 95.0431,97.7025 95.5,98.5C 94.1255,101.729 91.7921,102.896 88.5,102C 90.0632,100.264 91.7299,98.764 93.5,97.5 Z"/></g>
<g><path style="opacity:1" fill="#fe9900" d="M 73.5,98.5 C 79.0835,98.8721 79.5835,100.205 75,102.5C 73.7753,102.138 72.6086,101.638 71.5,101C 72.3805,100.292 73.0472,99.4584 73.5,98.5 Z"/></g>
<g><path style="opacity:1" fill="#fe9900" d="M 81.5,99.5 C 89.0441,99.1112 89.3775,100.111 82.5,102.5C 81.5,102.333 80.5,102.167 79.5,102C 80.3805,101.292 81.0472,100.458 81.5,99.5 Z"/></g>
<g><path style="opacity:1" fill="#fe9900" d="M 66.5,104.5 C 69.3324,106.407 70.1657,109.073 69,112.5C 66.7969,110.331 65.9635,107.665 66.5,104.5 Z"/></g>
<g><path style="opacity:1" fill="#fe9900" d="M 65.5,112.5 C 69.4185,114.846 70.4185,118.179 68.5,122.5C 65.8571,119.734 64.8571,116.401 65.5,112.5 Z"/></g>
<g><path style="opacity:1" fill="#fefffe" d="M -0.5,117.5 C 6.73062,157.397 30.064,182.064 69.5,191.5C 46.1667,191.5 22.8333,191.5 -0.5,191.5C -0.5,166.833 -0.5,142.167 -0.5,117.5 Z"/></g>
<g><path style="opacity:1" fill="#fefffe" d="M 165.5,119.5 C 165.5,143.5 165.5,167.5 165.5,191.5C 142.167,191.5 118.833,191.5 95.5,191.5C 104.002,189.388 112.336,186.554 120.5,183C 125.672,179.915 130.672,176.581 135.5,173C 151.89,158.716 161.89,140.883 165.5,119.5 Z"/></g>
<g><path style="opacity:1" fill="#fe9900" d="M 65.5,122.5 C 69.3388,124.496 70.3388,127.496 68.5,131.5C 67.5224,131.023 66.6891,130.357 66,129.5C 65.5034,127.19 65.3367,124.857 65.5,122.5 Z"/></g>
<g><path style="opacity:1" fill="#fe9900" d="M 65.5,132.5 C 66.7498,132.577 67.5831,133.244 68,134.5C 68.6667,136.833 68.6667,139.167 68,141.5C 65.7492,138.983 64.9159,135.983 65.5,132.5 Z"/></g>
<g><path style="opacity:1" fill="#fe9900" d="M 65.5,142.5 C 66.7498,142.577 67.5831,143.244 68,144.5C 68.4999,158.496 68.6666,172.496 68.5,186.5C 66.8008,186.66 65.1341,186.494 63.5,186C 64.4752,171.573 65.1418,157.073 65.5,142.5 Z"/></g>
</svg>

<svg xmlns="http://www.w3.org/2000/svg" width="166" height="192" style="shape-rendering:geometricPrecision;text-rendering:geometricPrecision;image-rendering:optimizeQuality;fill-rule:evenodd;clip-rule:evenodd"><path style="opacity:1" d="M-.5-.5h166v120c-3.61 21.383-13.61 39.216-30 53.5a179.617 179.617 0 0 1-15 10 157.946 157.946 0 0 1-25 8.5h-26c-39.436-9.436-62.77-34.103-70-74V-.5z"/><path style="opacity:1" fill="#fe9900" d="M11.5 47.5c.788 3.12 2.788 4.788 6 5 1.28 1.431 2.947 2.098 5 2a18.436 18.436 0 0 0 .5 6c.383.556.883.89 1.5 1 2.413 5.982 5.747 11.482 10 16.5a114.54 114.54 0 0 0 24 15.5c-1.873 28.895-6.04 57.562-12.5 86-23.571-12.795-37.571-32.461-42-59-.5-38.999-.667-77.999-.5-117 26.002-.167 52.002 0 78 .5a726.161 726.161 0 0 0-23 28c3.985 7.635 7.985 15.302 12 23-15.795-.41-30.462-4.576-44-12.5a64.875 64.875 0 0 1-1-16h7v-6h-7v-7h-6v7h-6v6h6v16h-10c-.38 2.198.287 3.865 2 5zM147.5 48.5c2.252-.416 3.752-1.749 4.5-4 1.744-8.113.244-15.446-4.5-22-1.545-.952-3.212-1.285-5-1-1.882-13.264-4.049-13.264-6.5 0a222.747 222.747 0 0 1-1.5 21c-12.865 7.64-26.532 11.973-41 13a701.616 701.616 0 0 0 11-22.5 222.774 222.774 0 0 0-21-29c25.998-.5 51.998-.667 78-.5.167 39.668 0 79.335-.5 119-5.568 26.235-20.235 45.568-44 58l-1-2A1014.32 1014.32 0 0 1 104.5 94c12.997-7.658 24.164-17.492 33.5-29.5a324.235 324.235 0 0 1 5.5-13.5 24.939 24.939 0 0 0-7-.5v-8c5.011-.166 10.011 0 15 .5a54.666 54.666 0 0 0-4 5.5z"/><path style="opacity:1" fill="#fefefe" d="M77.5 20.5a40.936 40.936 0 0 1 9 .5c1.829.273 3.329 1.107 4.5 2.5a90.496 90.496 0 0 1 0 19c-1.68 4.346-4.68 7.346-9 9-5.662-1.957-8.996-5.957-10-12a64.247 64.247 0 0 1 0-16c1.719-1.369 3.552-2.369 5.5-3z"/><path style="opacity:1" fill="#fe9900" d="M136.5 23.5h5v17h-5v-17z"/><path style="opacity:1" d="M75.5 28.5c1.478-.262 2.811.071 4 1-1.575 1.13-3.241 1.297-5 .5.556-.383.89-.883 1-1.5zM84.5 28.5c2.683-.273 4.183.727 4.5 3-2.026-.415-3.526-1.415-4.5-3zM76.5 31.5c3.499-.241 3.832.592 1 2.5-1.444.78-2.777.614-4-.5a44.293 44.293 0 0 0 3-2zM83.5 32.5c2.003-1.032 4.003-.698 6 1-2.257 1.27-4.257.936-6-1z"/><path style="opacity:1" fill="#fe9900" d="M142.5 32.5h9v8h-9v-8z"/><path style="opacity:1" d="M79.5 38.5c1.837.14 2.17.806 1 2-.797-.457-1.13-1.124-1-2z"/><path style="opacity:1" fill="#fe9900" d="M17.5 52.5a579.993 579.993 0 0 0-6-5 5.576 5.576 0 0 0-1-3 38.06 38.06 0 0 1 15-.5c1.821 2.456 2.488 5.29 2 8.5h-10z"/><path style="opacity:1" d="M79.5 43.5c4.088-.282 4.588.385 1.5 2-1.03-.336-1.53-1.003-1.5-2zM11.5 47.5c2.04 1.677 4.04 3.344 6 5-3.212-.212-5.212-1.88-6-5zM147.5 48.5c-.502 1.585-1.502 2.085-3 1.5.744-1.039 1.744-1.539 3-1.5z"/><path style="opacity:1" fill="#fe9900" d="M136.5 52.5c1.478-.262 2.811.071 4 1-3.377 12.122-4.711 11.788-4-1zM24.5 61.5a51.639 51.639 0 0 0-1-7h4a60.94 60.94 0 0 1-.5 11c-.608-1.566-1.442-2.9-2.5-4zM60.5 94.5c4.277.4 4.777 1.733 1.5 4-1.188-1.063-1.688-2.397-1.5-4zM99.5 95.5h3v4a29.817 29.817 0 0 1-5 .5 9.173 9.173 0 0 0 2-4.5zM67.5 96.5c3.75.777 3.916 2.11.5 4-3.015-.859-3.181-2.192-.5-4zM93.5 97.5c.876-.13 1.543.203 2 1-1.374 3.229-3.708 4.396-7 3.5 1.563-1.736 3.23-3.236 5-4.5zM73.5 98.5c5.584.372 6.084 1.705 1.5 4a16.199 16.199 0 0 1-3.5-1.5c.88-.708 1.547-1.542 2-2.5zM81.5 99.5c7.544-.389 7.877.611 1 3l-3-.5c.88-.708 1.547-1.542 2-2.5zM66.5 104.5c2.832 1.907 3.666 4.573 2.5 8-2.203-2.169-3.037-4.835-2.5-8zM65.5 112.5c3.918 2.346 4.918 5.679 3 10-2.643-2.766-3.643-6.099-3-10z"/><path style="opacity:1" fill="#fefffe" d="M-.5 117.5c7.23 39.897 30.564 64.564 70 74h-70v-74zM165.5 119.5v72h-70a157.946 157.946 0 0 0 25-8.5 179.617 179.617 0 0 0 15-10c16.39-14.284 26.39-32.117 30-53.5z"/><path style="opacity:1" fill="#fe9900" d="M65.5 122.5c3.839 1.996 4.839 4.996 3 9a7.253 7.253 0 0 1-2.5-2 24.939 24.939 0 0 1-.5-7zM65.5 132.5c1.25.077 2.083.744 2.5 2a12.5 12.5 0 0 1 0 7c-2.25-2.517-3.084-5.517-2.5-9zM65.5 142.5c1.25.077 2.083.744 2.5 2 .5 13.996.667 27.996.5 42a12.93 12.93 0 0 1-5-.5 1014.604 1014.604 0 0 0 2-43.5z"/></svg>
